X: 123b
T: Boston Boy
S: Ricky Skaggs 
S: MandoZine TablEdit Archives 
Z: TablEdited by Mike Stangeland for MandoZine 
L: 1/8
Q: 616
M: 4/4
K: C
 [c4E4C4] [c4E4C4] | [cEC][cEC] [cEC][cEC] [c2E2C2] G,B, |
 "C"C2 CC CD EG | "F"FF FF FE D^F | "G"G^F GA BG GB | "C"cB cB AG EG, |
 C2 [c2E2C2] EG GE | "F"FE FE FE D^F | "G"G^F GA Bc dB | "C"[e2c2] [ec][ec] [ec]G, G,B, |
 C2 CD EC CE | "F"FE FE FE D^F | G^F GA Bc dB | "C"cB cB AB cB |
 cB cB cB AG | "F"FE FA zA FF | "G"G^F GA Bc dB | "C"c2 [cEC][cEC] [c2E2C2] [ed]e |

|: "C"eg ed cd eg | ag ga g2 dc | "G"BG G^F GA Bc | "C"d2 [ecE][ecE] [e2c2E2] [ed]e |
 eg ed cd eg | ag ga g2 dc | "G"BG G^F GA GE |1 D2 [cEC][cEC] [c2E2C2] [ed]e :|2 D2 [cEC][cEC] [c2E2C2] G,B, |

 C2 CC CD EG | "F"FF FF FE D^F | "G"G^F GA BG GB | "C"cB cB AG EG, | C2 CE EG GE |
 "F"EF FE [A2D2] D^F | "G"G^F GA Bc dB | "C"[e2c2] [ec][ec] [ed]e eg | ed c2 AA Ac |
 "F"AG F2 A_B =Bd | "G"BD GB AG [BG]B | "C"cB cB Ac BA | cB cB cB AG | "F"FE FG AG F2 |
 "G"G^F GA BG Bd | "C"[c2E2C2] [cEC][cEC] [c2E2C2] [ed]e | eg ed cd eg | ag ga g2 dc |
 "G"BG G^F GA Bc | d2 [ec][ec] [e2c2] [ed]e | "C"eg ed cd eg | ag ga g2 bb | "G"bg ag ac' c'c' |
 "C"ac' c'c' ac' c'c' | ac' c'c' ac' c'c' | ac' c'c' ag gg | "G"ab bb ag gg | "C"[ee][ee] [ee][ee] d[ec] [e2c2] |
 d2 [ed]c cd [ee]e | ag ga gB dc | "G"B^F G^F G^F GE | "C"D2 [EC][EC] [E4C4] |

